X: 16512
T: Hal An Tow
R: jig
M: 6/8
K: Fmajor
A2AA2F|G2GD2A|B2cd2c|B2AG2B|A2AAAF|GGGD2A|
B2cd2c|B2AG2B|A3AGF|G3D2B|A2GF2E|F6|A3G3|
F6|A2AG2F|G6|A3AGF|(G3G2)A|B2cd2c|B2AG2B|A2AA2F|
G2GD2A|B2cd2c|B2AG2B|A2AAGF|G3D2B|A2GF2E|F3F3||

